X:1
T:Title
%%score { ( 1 4 ) | ( 2 3 ) }
L:1/8
Q:1/4=100
M:4/4
K:D
V:1 bass nm="Grand Piano"
V:4 bass 
V:2 bass 
V:3 bass 
V:1
 [F,D]3 [A,CE][K:treble] [A,DF][A,EG][DFA][DGB] | [DFA]4 [Fd]2 z2 | %2
w: Asa~Hull * * * * *||
 [FA]3 [FA] [GB][FA][A,DF][K:bass][F,D] | E4 z4 | [F,D]3[K:treble] [A,CE] [A,DF][A,EG][DFA][DGB] | %5
w: |||
 [DFA]4 [Fd]2 z2 |[M:9/8] [Ec]3 [EB][Ee][Fd] [Ec]3/2[DB]3/2 |[M:4/4] [A,CA]6 z2 | %8
w: |||
 [F,D]3 [A,CE][K:treble] [A,DF][A,EG][DFA][DGB] | [DFA]4 [Fd]2 z2 | %10
w: ||
 [FA]3 [FA] [GB][FA][A,DF][K:bass][F,D] | E4 z4 | [F,D]3[K:treble] [A,CE] [A,DF][A,EG][DFA][DGB] | %13
w: |||
 [DFA]4 [Fd]2 z2 |[M:9/8] [Ec]3 [EB][Ee][Fd] [Ec]3/2[DB]3/2 |[M:4/4] [A,CA]6 z2 | A3 B AFED | %17
w: ||||
 [CE]4 [DF]4 | z4 [Fd]4 | [DFA]2 [A,DF]2 [A,CE]4 | A3 B A2 F2 |[M:9/8] B3 [Ac] [Bd]2 B3 | %22
w: |||||
[M:4/4] B>B BB A2 [Gc]2[Q:1/4=98][Q:1/4=97][Q:1/4=95][Q:1/4=94][Q:1/4=92][Q:1/4=91][Q:1/4=89][Q:1/4=88][Q:1/4=86][Q:1/4=84][Q:1/4=83][Q:1/4=81][Q:1/4=80][Q:1/4=78][Q:1/4=77] | %23
w: |
 d6 z2 |] %24
w: |
V:2
 D,3 A,, D,D,D,D, | z2 z[K:treble] d [D,A,]2 z2 | [D,D]3 [D,D] [D,D][D,D]D,D, | %3
 z4[K:treble] A2 z2 | D,3 A,, D,D,D,D, | z2 z[K:treble] d[K:bass] [D,A,]2 z2 | %6
[M:9/8] [E,A,]3 [E,^G,][C,A,][D,A,] [E,A,]3/2[E,G,]3/2 |[M:4/4] A,,6 z2 | D,3 A,, D,D,D,D, | %9
 z2 z[K:treble] d [D,A,]2 z2 | [D,D]3 [D,D] [D,D][D,D]D,D, | z4[K:treble] A2 z2 | %12
 D,3 A,, D,D,D,D, | z2 z[K:treble] d[K:bass] [D,A,]2 z2 | %14
[M:9/8] [E,A,]3 [E,^G,][C,A,][D,A,] [E,A,]3/2[E,G,]3/2 |[M:4/4] A,,6 z2 | F3 G FDC[K:bass]B, | %17
 A,,>A,, A,,A,, D,2 D,2 | G2 E2[K:bass] [D,A,]>D, D,D, | D,2 D,2 A,,4 | F3 G F2 D2 | %21
[M:9/8] [G,DG]3 [G,D] [G,D]2 [G,DG]3 |[M:4/4] [G,DG]>[G,DG] [G,DG][G,DG] [A,CG]2[K:bass] [A,,A,]2 | %23
 A,>A, B,B, A,2 z2 |] %24
V:3
 x8 | D,4[K:treble] z4 | x8 | A,,6[K:treble] z2 | x8 | D,4[K:treble][K:bass] z4 |[M:9/8] x9 | %7
[M:4/4] x8 | x8 | D,4[K:treble] z4 | x8 | A,,6[K:treble] z2 | x8 | D,4[K:treble][K:bass] z4 | %14
[M:9/8] x9 |[M:4/4] x8 | x7[K:bass] x | x8 | x4[K:bass] x4 | x8 | x8 |[M:9/8] x9 | %22
[M:4/4] x6[K:bass] x2 | D,6 z2 |] %24
V:4
 x4[K:treble] x4 | x8 | x7[K:bass] x | [A,C]6 z2 | x3[K:treble] x5 | x8 |[M:9/8] x9 |[M:4/4] x8 | %8
 x4[K:treble] x4 | x8 | x7[K:bass] x | [A,C]6 z2 | x3[K:treble] x5 | x8 |[M:9/8] x9 |[M:4/4] x8 | %16
 x8 | A,>A, A,A, A,2 A,2 | B2 c2 z z/ A,/ A,[DGB] | x8 | x8 |[M:9/8] x9 |[M:4/4] x8 | %23
 F>F GG F2 z2 |] %24

